catenergy/img/andvantage-powder.svg

<svg width="29pt" height="31pt" viewBox="0 0 29 31" xmlns="http://www.w3.org/2000/svg"><g fill="#fff"><path opacity=".92" d="M10.19 0h2.09c4.26.63 3.24 8.17-1.21 7.17-3.71-.35-3.83-5.63-.88-7.17m.22 2.39c-1.88 1.41.98 4.18 2.34 2.38 1.72-1.29-.9-4.34-2.34-2.38z"/><path opacity=".92" d="M0 7.44c.48-.03 1.43-.08 1.91-.11.05 5.9-.06 11.81.03 17.71.08 1.42.16 3.75 2.13 3.66 6.95.19 13.94.19 20.89 0 1.91.06 2.03-2.21 2.11-3.61.08-5.93-.03-11.87.02-17.8.48.03 1.43.1 1.91.13v20.7c-1.17.74-2.14 1.74-2.91 2.88H2.87A9.863 9.863 0 0 0 0 28.08V7.44z"/><path opacity=".92" d="M17.51 9.76c3.11-1.16 7.65.21 9.01 3.26-1.28 2.52-3.57-1.34-5.43-1.22-4.29-1.24-6.29 3.73-10.12 4.33-3.2.83-6.72-.52-8.72-3.12 1.49-2.73 3.6.73 5.5 1.07 4.08 1.02 6.29-3.28 9.76-4.32zM6.22 18.18c2.23-3.13 6.53 1.52 3.88 3.84-2.25 2.72-6.5-1.51-3.88-3.84zm13.2.12c4.38-1.97 6.83 5.5 2.47 6.72-4.12 1.46-6.35-4.98-2.47-6.72m.12 2.24c-.27 1.07.96 4.06 2.18 2.1 1.76-1.22-.89-2.77-2.18-2.1z"/></g></svg>

<?xml version="1.0" encoding="UTF-8" ?>
<!DOCTYPE svg PUBLIC "-//W3C//DTD SVG 1.1//EN" "http://www.w3.org/Graphics/SVG/1.1/DTD/svg11.dtd">
<svg width="29pt" height="31pt" viewBox="0 0 29 31" version="1.1" xmlns="http://www.w3.org/2000/svg">
<g id="#ffffffeb">
<path fill="#ffffff" opacity="0.92" d=" M 10.19 0.00 L 12.28 0.00 C 16.54 0.63 15.52 8.17 11.07 7.17 C 7.36 6.82 7.24 1.54 10.19 0.00 M 10.41 2.39 C 8.53 3.80 11.39 6.57 12.75 4.77 C 14.47 3.48 11.85 0.43 10.41 2.39 Z" />
<path fill="#ffffff" opacity="0.92" d=" M 0.00 7.44 C 0.48 7.41 1.43 7.36 1.91 7.33 C 1.96 13.23 1.85 19.14 1.94 25.04 C 2.02 26.46 2.10 28.79 4.07 28.70 C 11.02 28.89 18.01 28.89 24.96 28.70 C 26.87 28.76 26.99 26.49 27.07 25.09 C 27.15 19.16 27.04 13.22 27.09 7.29 C 27.57 7.32 28.52 7.39 29.00 7.42 L 29.00 28.12 C 27.83 28.86 26.86 29.86 26.09 31.00 L 2.87 31.00 C 2.13 29.84 1.15 28.84 0.00 28.08 L 0.00 7.44 Z" />
<path fill="#ffffff" opacity="0.92" d=" M 17.51 9.76 C 20.62 8.60 25.16 9.97 26.52 13.02 C 25.24 15.54 22.95 11.68 21.09 11.80 C 16.80 10.56 14.80 15.53 10.97 16.13 C 7.77 16.96 4.25 15.61 2.25 13.01 C 3.74 10.28 5.85 13.74 7.75 14.08 C 11.83 15.10 14.04 10.80 17.51 9.76 Z" />
<path fill="#ffffff" opacity="0.92" d=" M 6.22 18.18 C 8.45 15.05 12.75 19.70 10.10 22.02 C 7.85 24.74 3.60 20.51 6.22 18.18 Z" />
<path fill="#ffffff" opacity="0.92" d=" M 19.42 18.30 C 23.80 16.33 26.25 23.80 21.89 25.02 C 17.77 26.48 15.54 20.04 19.42 18.30 M 19.54 20.54 C 19.27 21.61 20.50 24.60 21.72 22.64 C 23.48 21.42 20.83 19.87 19.54 20.54 Z" />
</g>
</svg>
